X:1
T:Title
%%score { 1 | 2 }
L:1/8
M:9/8
K:G
V:1 treble nm="Grand Piano"
V:2 treble 
V:1
 z3 z3[Q:1/4=100] DGA | B3 G3 [EA][EG][CE] | [CE]3 [B,D]3 [B,D][DG]A | B3 G2 B [Fd][Fd][Fe] | %4
 d6 edB | A3 G3 [EA][EG][CE] | [CE]3 [B,D]3 DGB | d3 B2 [DG] [CFA]GF |[M:3/4] G6 |[M:3/8] dBe | %10
[M:9/8] d3 B3 [DGB][B,G][EGc] | [DGB]3 [B,DG]3 [DFA][DFA][CFA] | [B,EG]3 [DFA]3 BdB | [FA]6 Bde | %14
 d3 B3 [DGB][B,G][EGc] | [DGB]3 [B,DG]3 [EA][EG]E | D3 B3 [CFA][B,G][A,DF] |[M:3/4] [B,DG]6 |] %18
V:2
 z3 z3 [G,B,][G,B,D][G,CD] | [G,DG]3 [G,B,D]3[K:bass] [C,C][C,C][C,G,] | %2
 [G,,G,]3 [G,,G,]3 [G,,G,][B,,G,][D,F,D] | [G,D]3 [G,B,D]2 [G,D] [D,A,][D,A,][D,C] | %4
 [G,B,G]6 [G,B,G][G,B,G][K:bass][G,D] | [D,F,C]3 [E,G,B,]3 [C,C][C,C][C,G,] | %6
 [G,,G,]3 [G,,G,]3 [G,B,][K:treble][G,B,D][G,DG] | [G,B,G]3 [G,DG]2[K:bass] B,, D,[D,B,][D,A,D] | %8
[M:3/4] [G,B,D]6 |[M:3/8][K:treble] [G,B,G][G,DG][G,CG] | %10
[M:9/8] [G,B,G]3 [G,DG]3[K:bass] G,,G,,G,, | G,,3 G,,3 D,D,D, | %12
 E,3 D,3[K:treble] [G,DG][G,B,G][G,DG] | [D,D]6 [G,DG][G,B,G][G,CG] | %14
 [G,B,G]3 [G,DG]3[K:bass] G,,G,,G,, | G,,3 G,,3 [C,C][C,C][C,G,C] | [D,G,B,]3 [D,G,D]3 D,D,D, | %17
[M:3/4] G,,6 |] %18

